images/16757840.svg

<?xml version="1.0" encoding="UTF-8"?>
<svg xmlns="http://www.w3.org/2000/svg" xmlns:xlink="http://www.w3.org/1999/xlink" width="300pt" height="300pt" viewBox="0 0 300 300" version="1.1">
<defs>
<g>
<symbol overflow="visible" id="glyph0-0">
<path style="stroke:none;" d="M 0.59375 2.125 L 0.59375 -8.46875 L 6.59375 -8.46875 L 6.59375 2.125 Z M 1.265625 1.453125 L 5.9375 1.453125 L 5.9375 -7.78125 L 1.265625 -7.78125 Z M 1.265625 1.453125 "/>
</symbol>
<symbol overflow="visible" id="glyph0-1">
<path style="stroke:none;" d="M 4.734375 -7.953125 C 3.867188 -7.953125 3.179688 -7.628906 2.671875 -6.984375 C 2.171875 -6.347656 1.921875 -5.472656 1.921875 -4.359375 C 1.921875 -3.265625 2.171875 -2.394531 2.671875 -1.75 C 3.179688 -1.113281 3.867188 -0.796875 4.734375 -0.796875 C 5.585938 -0.796875 6.265625 -1.113281 6.765625 -1.75 C 7.273438 -2.394531 7.53125 -3.265625 7.53125 -4.359375 C 7.53125 -5.472656 7.273438 -6.347656 6.765625 -6.984375 C 6.265625 -7.628906 5.585938 -7.953125 4.734375 -7.953125 Z M 4.734375 -8.90625 C 5.953125 -8.90625 6.925781 -8.492188 7.65625 -7.671875 C 8.394531 -6.847656 8.765625 -5.742188 8.765625 -4.359375 C 8.765625 -2.984375 8.394531 -1.882812 7.65625 -1.0625 C 6.925781 -0.238281 5.953125 0.171875 4.734375 0.171875 C 3.503906 0.171875 2.519531 -0.238281 1.78125 -1.0625 C 1.039062 -1.882812 0.671875 -2.984375 0.671875 -4.359375 C 0.671875 -5.742188 1.039062 -6.847656 1.78125 -7.671875 C 2.519531 -8.492188 3.503906 -8.90625 4.734375 -8.90625 Z M 4.734375 -8.90625 "/>
</symbol>
</g>
</defs>
<g id="surface48689">
<rect x="0" y="0" width="300" height="300" style="fill:rgb(100%,100%,100%);fill-opacity:1;stroke:none;"/>
<path style="fill:none;stroke-width:1.2;stroke-linecap:butt;stroke-linejoin:miter;stroke:rgb(0%,0%,0%);stroke-opacity:1;stroke-miterlimit:10;" d="M 236.554688 187.050781 L 220.980469 161.78125 "/>
<path style="fill:none;stroke-width:1.2;stroke-linecap:butt;stroke-linejoin:miter;stroke:rgb(0%,0%,0%);stroke-opacity:1;stroke-miterlimit:10;" d="M 220.980469 161.78125 L 191.308594 162.636719 "/>
<path style="fill:none;stroke-width:1.2;stroke-linecap:butt;stroke-linejoin:miter;stroke:rgb(0%,0%,0%);stroke-opacity:1;stroke-miterlimit:10;" d="M 217.8125 154.886719 L 194.074219 155.566406 "/>
<path style="fill:none;stroke-width:1.2;stroke-linecap:butt;stroke-linejoin:miter;stroke:rgb(0%,0%,0%);stroke-opacity:1;stroke-miterlimit:10;" d="M 235.078125 135.660156 L 220.980469 161.78125 "/>
<path style="fill:none;stroke-width:1.2;stroke-linecap:butt;stroke-linejoin:miter;stroke:rgb(0%,0%,0%);stroke-opacity:1;stroke-miterlimit:10;" d="M 191.308594 162.636719 L 177.210938 188.757812 "/>
<path style="fill:none;stroke-width:1.2;stroke-linecap:butt;stroke-linejoin:miter;stroke:rgb(0%,0%,0%);stroke-opacity:1;stroke-miterlimit:10;" d="M 175.734375 137.363281 L 191.308594 162.636719 "/>
<path style="fill:none;stroke-width:1.2;stroke-linecap:butt;stroke-linejoin:miter;stroke:rgb(0%,0%,0%);stroke-opacity:1;stroke-miterlimit:10;" d="M 177.210938 188.757812 L 147.539062 189.613281 "/>
<path style="fill:none;stroke-width:1.2;stroke-linecap:butt;stroke-linejoin:miter;stroke:rgb(0%,0%,0%);stroke-opacity:1;stroke-miterlimit:10;" d="M 147.539062 189.613281 L 131.964844 164.339844 "/>
<path style="fill:none;stroke-width:1.2;stroke-linecap:butt;stroke-linejoin:miter;stroke:rgb(0%,0%,0%);stroke-opacity:1;stroke-miterlimit:10;" d="M 131.964844 164.339844 L 102.292969 165.195312 "/>
<path style="fill:none;stroke-width:1.2;stroke-linecap:butt;stroke-linejoin:miter;stroke:rgb(0%,0%,0%);stroke-opacity:1;stroke-miterlimit:10;" d="M 146.0625 138.21875 L 131.964844 164.339844 "/>
<path style="fill:none;stroke-width:1.2;stroke-linecap:butt;stroke-linejoin:miter;stroke:rgb(0%,0%,0%);stroke-opacity:1;stroke-miterlimit:10;" d="M 102.292969 165.195312 L 83.070312 187.816406 "/>
<path style="fill:none;stroke-width:1.2;stroke-linecap:butt;stroke-linejoin:miter;stroke:rgb(0%,0%,0%);stroke-opacity:1;stroke-miterlimit:10;" d="M 86.71875 139.925781 L 102.292969 165.195312 "/>
<path style="fill:none;stroke-width:1.2;stroke-linecap:butt;stroke-linejoin:miter;stroke:rgb(0%,0%,0%);stroke-opacity:1;stroke-miterlimit:10;" d="M 83.070312 187.816406 L 55.617188 176.527344 "/>
<path style="fill:none;stroke-width:1.2;stroke-linecap:butt;stroke-linejoin:miter;stroke:rgb(0%,0%,0%);stroke-opacity:1;stroke-miterlimit:10;" d="M 55.617188 176.527344 L 57.871094 146.929688 "/>
<path style="fill:none;stroke-width:1.2;stroke-linecap:butt;stroke-linejoin:miter;stroke:rgb(0%,0%,0%);stroke-opacity:1;stroke-miterlimit:10;" d="M 60.132812 144.265625 L 48.820312 134.65625 "/>
<path style="fill:none;stroke-width:1.2;stroke-linecap:butt;stroke-linejoin:miter;stroke:rgb(100%,0%,0%);stroke-opacity:1;stroke-miterlimit:10;" d="M 48.820312 134.65625 L 37.511719 125.046875 "/>
<path style="fill:none;stroke-width:1.2;stroke-linecap:butt;stroke-linejoin:miter;stroke:rgb(0%,0%,0%);stroke-opacity:1;stroke-miterlimit:10;" d="M 55.609375 149.589844 L 44.300781 139.980469 "/>
<path style="fill:none;stroke-width:1.2;stroke-linecap:butt;stroke-linejoin:miter;stroke:rgb(100%,0%,0%);stroke-opacity:1;stroke-miterlimit:10;" d="M 44.300781 139.980469 L 32.988281 130.367188 "/>
<path style="fill:none;stroke-width:1.2;stroke-linecap:butt;stroke-linejoin:miter;stroke:rgb(0%,0%,0%);stroke-opacity:1;stroke-miterlimit:10;" d="M 57.871094 146.929688 L 86.71875 139.925781 "/>
<path style=" stroke:none;fill-rule:nonzero;fill:rgb(100%,100%,100%);fill-opacity:1;" d="M 25.25 120.707031 L 35.25 120.707031 L 35.25 134.707031 L 25.25 134.707031 Z M 25.25 120.707031 "/>
<g style="fill:rgb(100%,0%,0%);fill-opacity:1;">
  <use xlink:href="#glyph0-1" x="25.25" y="131.845703"/>
</g>
<path style="fill:none;stroke-width:1.2;stroke-linecap:butt;stroke-linejoin:miter;stroke:rgb(0%,0%,0%);stroke-opacity:1;stroke-miterlimit:10;" d="M 86.71875 139.925781 L 100.816406 113.800781 "/>
<path style="fill:none;stroke-width:1;stroke-linecap:butt;stroke-linejoin:miter;stroke:rgb(0%,0%,0%);stroke-opacity:1;stroke-miterlimit:10;" d="M 86.71875 139.925781 L 86.71875 139.925781 M 85.324219 137.265625 L 84.5 137.902344 M 83.933594 134.609375 L 82.28125 135.882812 M 82.542969 131.953125 L 80.066406 133.863281 M 81.152344 129.292969 L 77.847656 131.839844 M 79.757812 126.636719 L 75.632812 129.820312 M 78.367188 123.976562 L 73.414062 127.800781 M 76.976562 121.320312 L 71.195312 125.777344 M 75.585938 118.664062 L 68.980469 123.757812 M 74.191406 116.003906 L 66.761719 121.738281 M 72.800781 113.347656 L 64.542969 119.714844 M 72.734375 113.222656 L 64.4375 119.621094 "/>
<path style="fill:none;stroke-width:1.2;stroke-linecap:butt;stroke-linejoin:miter;stroke:rgb(0%,0%,0%);stroke-opacity:1;stroke-miterlimit:10;" d="M 100.816406 113.800781 L 130.488281 112.949219 "/>
<path style="fill:none;stroke-width:1.2;stroke-linecap:butt;stroke-linejoin:miter;stroke:rgb(0%,0%,0%);stroke-opacity:1;stroke-miterlimit:10;" d="M 130.488281 112.949219 L 146.0625 138.21875 "/>
<path style="fill:none;stroke-width:1.2;stroke-linecap:butt;stroke-linejoin:miter;stroke:rgb(0%,0%,0%);stroke-opacity:1;stroke-miterlimit:10;" d="M 146.0625 138.21875 L 175.734375 137.363281 "/>
<path style="fill:none;stroke-width:1.2;stroke-linecap:butt;stroke-linejoin:miter;stroke:rgb(0%,0%,0%);stroke-opacity:1;stroke-miterlimit:10;" d="M 175.734375 137.363281 L 189.832031 111.242188 "/>
<path style=" stroke:none;fill-rule:nonzero;fill:rgb(0%,0%,0%);fill-opacity:1;" d="M 175.734375 137.363281 L 164.617188 109.347656 L 155.699219 114.84375 Z M 175.734375 137.363281 "/>
<path style="fill:none;stroke-width:1.2;stroke-linecap:butt;stroke-linejoin:miter;stroke:rgb(0%,0%,0%);stroke-opacity:1;stroke-miterlimit:10;" d="M 189.832031 111.242188 L 219.503906 110.386719 "/>
<path style="fill:none;stroke-width:1.2;stroke-linecap:butt;stroke-linejoin:miter;stroke:rgb(0%,0%,0%);stroke-opacity:1;stroke-miterlimit:10;" d="M 219.503906 110.386719 L 235.078125 135.660156 "/>
<path style="fill:none;stroke-width:1.2;stroke-linecap:butt;stroke-linejoin:miter;stroke:rgb(0%,0%,0%);stroke-opacity:1;stroke-miterlimit:10;" d="M 235.179688 139.148438 L 250.015625 138.722656 "/>
<path style="fill:none;stroke-width:1.2;stroke-linecap:butt;stroke-linejoin:miter;stroke:rgb(100%,0%,0%);stroke-opacity:1;stroke-miterlimit:10;" d="M 250.015625 138.722656 L 264.851562 138.296875 "/>
<path style="fill:none;stroke-width:1.2;stroke-linecap:butt;stroke-linejoin:miter;stroke:rgb(0%,0%,0%);stroke-opacity:1;stroke-miterlimit:10;" d="M 234.976562 132.167969 L 249.8125 131.742188 "/>
<path style="fill:none;stroke-width:1.2;stroke-linecap:butt;stroke-linejoin:miter;stroke:rgb(100%,0%,0%);stroke-opacity:1;stroke-miterlimit:10;" d="M 249.8125 131.742188 L 264.648438 131.316406 "/>
<path style=" stroke:none;fill-rule:nonzero;fill:rgb(100%,100%,100%);fill-opacity:1;" d="M 259.75 127.804688 L 269.75 127.804688 L 269.75 141.804688 L 259.75 141.804688 Z M 259.75 127.804688 "/>
<g style="fill:rgb(100%,0%,0%);fill-opacity:1;">
  <use xlink:href="#glyph0-1" x="259.75" y="138.943359"/>
</g>
</g>
</svg>

<svg xmlns="http://www.w3.org/2000/svg" xmlns:xlink="http://www.w3.org/1999/xlink" width="300pt" height="300pt" viewBox="0 0 300 300"><defs><symbol overflow="visible"><path d="M.594 2.125V-8.47h6V2.126zm.672-.672h4.671V-7.78h-4.67zm0 0"/></symbol><symbol overflow="visible" id="a"><path d="M4.734-7.953c-.867 0-1.554.324-2.062.97-.5.635-.75 1.51-.75 2.624 0 1.094.25 1.965.75 2.61.508.637 1.195.953 2.062.953.852 0 1.532-.316 2.032-.953.507-.645.765-1.516.765-2.61 0-1.113-.257-1.988-.764-2.624-.5-.645-1.18-.97-2.032-.97zm0-.953c1.22 0 2.192.414 2.922 1.234.74.824 1.11 1.93 1.11 3.313 0 1.376-.37 2.477-1.11 3.298C6.926-.24 5.953.17 4.734.17c-1.23 0-2.214-.41-2.953-1.234C1.04-1.882.673-2.984.673-4.36c0-1.382.367-2.488 1.11-3.312.738-.82 1.722-1.234 2.952-1.234zm0 0"/></symbol></defs><g><path fill="#fff" d="M0 0h300v300H0z"/><path d="M236.555 187.05l-15.575-25.27M220.98 161.78l-29.67.857M217.813 154.887l-23.74.68M235.078 135.66l-14.098 26.12M191.31 162.637l-14.1 26.12M175.734 137.363l15.575 25.274M177.21 188.758l-29.67.855M147.54 189.613l-15.575-25.273M131.965 164.34l-29.672.855M146.063 138.22l-14.098 26.12M102.293 165.195l-19.223 22.62M86.72 139.926l15.573 25.27M83.07 187.816l-27.453-11.29M55.617 176.527l2.254-29.597M60.133 144.266l-11.313-9.61" stroke-width="1.2" stroke="#000" stroke-miterlimit="10" fill="none"/><path d="M48.82 134.656l-11.308-9.61" stroke-width="1.2" stroke="#f00" stroke-miterlimit="10" fill="none"/><path d="M55.61 149.59l-11.31-9.61" stroke-width="1.2" stroke="#000" stroke-miterlimit="10" fill="none"/><path d="M44.3 139.98l-11.312-9.613" stroke-width="1.2" stroke="#f00" stroke-miterlimit="10" fill="none"/><path d="M57.87 146.93l28.85-7.004" stroke-width="1.2" stroke="#000" stroke-miterlimit="10" fill="none"/><path d="M25.25 120.707h10v14h-10zm0 0" fill="#fff"/><use xlink:href="#a" x="25.25" y="131.846" fill="#f00"/><path d="M86.72 139.926l14.096-26.125" stroke-width="1.2" stroke="#000" stroke-miterlimit="10" fill="none"/><path d="M86.72 139.926m-1.396-2.66l-.824.636m-.566-3.293l-1.653 1.273m.263-3.93l-2.477 1.91m1.086-4.57l-3.304 2.547m1.91-5.203l-4.125 3.183m2.734-5.843l-4.953 3.824m3.563-6.48l-5.782 4.457m4.39-7.113l-6.605 5.094m5.21-7.754l-7.428 5.734m6.04-8.39l-8.26 6.367m8.192-6.492l-8.296 6.398" stroke="#000" stroke-miterlimit="10" fill="none"/><path d="M100.816 113.8l29.672-.85M130.488 112.95l15.575 25.27M146.063 138.22l29.67-.857M175.734 137.363l14.098-26.12" stroke-width="1.2" stroke="#000" stroke-miterlimit="10" fill="none"/><path d="M175.734 137.363l-11.117-28.015-8.918 5.496zm0 0"/><path d="M189.832 111.242l29.672-.855M219.504 110.387l15.574 25.273M235.18 139.148l14.836-.425" stroke-width="1.2" stroke="#000" stroke-miterlimit="10" fill="none"/><path d="M250.016 138.723l14.836-.426" stroke-width="1.2" stroke="#f00" stroke-miterlimit="10" fill="none"/><path d="M234.977 132.168l14.835-.426" stroke-width="1.2" stroke="#000" stroke-miterlimit="10" fill="none"/><path d="M249.813 131.742l14.835-.426" stroke-width="1.2" stroke="#f00" stroke-miterlimit="10" fill="none"/><path d="M259.75 127.805h10v14h-10zm0 0" fill="#fff"/><use xlink:href="#a" x="259.75" y="138.943" fill="#f00"/></g></svg>
